!!!OTL: 730. Die Melodie vom Mars-Liede. / V. Est-ce Mai (statt Mars!).
!!!COM: Sam. Scheidt
!!!ODT: 1624
!!!ARE: Europa, Mitteleuropa, Deutschland; France
!!!SCT: B0730D
!!!YEM: Copyright 1995, estate of Helmut Schaffrath.
**kern
*ICvox
*Ivox
*M4/4
*k[]
*C:
=1
{4g
4g
4g
8aL
8bJ
=2
4cc
8eL
8fJ
4g}
{4c
=3
2cc
2dd
=4
1ee}
=5
{4g
4g
4g
8aL
8bJ
=6
4cc
8eL
8fJ
4g}
{4c
=7
2cc
2dd
=8
1ee}
=9
{4ee
4ee
2ee
=10
4a
4a
4a
8bL
8cc}J
=11
{4.dd
8cc
4b
4a
=12
4g
8ccL
8ddJ
4ee
4dd
=13
1cc}
=14
{4ee
4ee
2ee
=15
4a
4a
4a
8bL
8cc}J
=16
{4.dd
8cc
4b
4a
=17
4g
8ccL
8ddJ
4ee
4dd
=18
1cc}
==
!!!AGN: ???
!!!GTL: Auslaendische Weisen, die in Deutschland gesungen wurden
!!!ONB: ESAC (Essen Associative Code) Database: BOEHME
!!!AMT: simple quadruple
!!!AIN: vox
!!!EED: Helmut Schaffrath
!!!EEV: 1.0
!!"Franʒöſiſches Liedchen. " (Thema ʒu Variationen. )
!!@@COMMENT:"Sam. Scheidt, Tabulatura nova. Hamburg. 1624."
!!@@END:
!!!URL-scan: https://archive.org/details/BoehmeVtLieder1895/page/n581/mode/2up
!!!ENC: Anna Maria Matuszewska
!!!EEV: 2024/18/07
*-
